!!!OTL: Falscher Sinn (81a), S. 221
!!!id: T0236V
**kern
*clefG2
*k[f#c#]
*D:
{8d
8f#
=1
4a
8a
8dd
8a
8f#
8g
8e
=2
4f#
8f#
8f#
4e}
=3
{8e
8f#
=4
4g
4f#
4g
4b
=5
2a}
4r
=6
{8f#
8a
=7
4dd
8dd
8dd
8dd
8cc#
8b
8a
=8
2b
4a
4r
=9
2g
4f#}
=10
{8a
8a
=11
4b
8a
8g
4f#
4e
=12
2d}
4r
==
*-
!!!minrhy: 8
!!!meters: 4/4 ]  ZZ[4
!!!cut1: Falscher Sinn (81a), S. 221
!!!cut2: 2. Melodie, 1. Variante
!!!reg: Luxemburg
!!!trd: Singendes Volk, Esch-Alzette 1937 posth.
!!!rhy1: XX  X_XXXXXX  X_XXX_
!!!rhy2: XX  X_X_X_X_  X__0_
!!!key: T0236V 08  D 4/4 ]  ZZ[4
!!!mod: HEPTATONIK IONISCH]  AMBITUS[8
!!!kad: 2531
!!!akz: 5532_445_+1+16543_631_
!!!fot: 'a__b__as'c__
!!!for: 'a__b__c__d__
!!!fok: '^a_/__^__\__
!! PHRAS[AUFTAKTIG]
!!!fkt: Liebeslieder
!!!bem: Reuland, hhh Gabriel Petry, 1906
!! THILL, Mathias:
!! PR[21] 2K[5] 2G[10] 3K[7] 3G[7] 4A[7] 4Ü[0] 5A[0] 6K[0] 6G[0]
!! 7K[0] 7G[0] 8A[0] MEHR[0] SI[36] ABS[42] SR[14] SP[21]
!! ST[9] 2k[7] 2g[21] 3k[10] 3g[2] 4d[2] 4ü[0] 5d[0] 6k[0] 6g[0]
!! 7k[0] 7g[0] 8d[0] mehr[0] si[43] dm[-7] sr[29] sp[14]
!! 1F[57] 2F[37] 3F[7] 4F[0] LF[0] 2P[0] 3P[0] 4P[0] TRI[0] DF[3] AB[46]
!! TF[0] U3K[0] U3[0] U4[0] U4Ü[0] U5[0] U6K[0] U6[0] U7K[0] U7[0]
!! N1[2] N2K[0] N2[7] N3K[0] N3[21] N4[16] N4Ü[0] N5[23] N6K[0] N6[12]
!!!n7k: 0] N7[2] O1[14] O2K[0] O2[2] O3K[0] O3[0] HÖ[0
